assets/icons/24px/stroke/music-24px.svg

<svg width="24" height="24" viewBox="0 0 24 24" fill="none" xmlns="http://www.w3.org/2000/svg">
<path fill-rule="evenodd" clip-rule="evenodd" d="M12 4C8.53292 4 5.57321 6.04331 4.46882 8.81024C3.90451 10.2241 4.22724 11.8729 4.76659 13.7136L5.64715 16.7188C5.80244 17.2488 5.49868 17.8044 4.96868 17.9597C4.43868 18.1149 3.88314 17.8112 3.72784 17.2812L2.84728 14.276C2.31619 12.4634 1.76442 10.1907 2.61132 8.06884C4.0393 4.49117 7.77055 2 12 2C16.2266 2 19.9461 4.52027 21.3789 8.06697C22.2356 10.1876 21.6837 12.4637 21.1527 14.276L20.2721 17.2812C20.1169 17.8112 19.5613 18.1149 19.0313 17.9597C18.5013 17.8044 18.1975 17.2488 18.3528 16.7188L19.2334 13.7136C19.7728 11.8726 20.0937 10.2252 19.5245 8.81611C18.4125 6.06357 15.4533 4 12 4Z" fill="white"/>
<path fill-rule="evenodd" clip-rule="evenodd" d="M7.75752 13.0301C8.29617 12.9076 8.8414 13.2425 8.97532 13.7782L10.4753 19.7782C10.6092 20.3138 10.2811 20.8474 9.74247 20.9699C9.20382 21.0924 8.65859 20.7575 8.52467 20.2218L7.02467 14.2218C6.89076 13.6862 7.21886 13.1526 7.75752 13.0301Z" fill="white"/>
<path fill-rule="evenodd" clip-rule="evenodd" d="M16.2425 13.0301C16.7811 13.1526 17.1092 13.6862 16.9753 14.2219L15.4753 20.2219C15.3414 20.7575 14.7962 21.0925 14.2575 20.9699C13.7189 20.8474 13.3908 20.3139 13.5247 19.7782L15.0247 13.7782C15.1586 13.2425 15.7038 12.9076 16.2425 13.0301Z" fill="white"/>
</svg>

<svg width="24" height="24" fill="none" xmlns="http://www.w3.org/2000/svg"><path fill-rule="evenodd" clip-rule="evenodd" d="M12 4C8.533 4 5.573 6.043 4.469 8.81c-.564 1.414-.242 3.063.298 4.904l.88 3.005a1 1 0 0 1-1.92.562l-.88-3.005c-.53-1.813-1.083-4.085-.236-6.207C4.04 4.49 7.771 2 12 2c4.227 0 7.946 2.52 9.379 6.067.857 2.12.305 4.397-.226 6.209l-.88 3.005a1 1 0 1 1-1.92-.562l.88-3.005c.54-1.841.86-3.489.291-4.898C18.413 6.064 15.454 4 12 4z" fill="#fff"/><path fill-rule="evenodd" clip-rule="evenodd" d="M7.758 13.03a1.026 1.026 0 0 1 1.217.748l1.5 6a.975.975 0 0 1-.733 1.192 1.026 1.026 0 0 1-1.217-.748l-1.5-6a.975.975 0 0 1 .733-1.192zm8.485 0a.975.975 0 0 1 .732 1.192l-1.5 6c-.134.535-.679.87-1.217.748a.975.975 0 0 1-.733-1.192l1.5-6c.134-.536.679-.87 1.217-.748z" fill="#fff"/></svg>
